lib/svgs/flag.svg

<svg xmlns="http://www.w3.org/2000/svg" viewBox="0 0 20 20">
    <path fill="#000" fill-rule="evenodd" d="M4.15059625,5.8125 C3.96309625,5.5 3.58809625,5.375 3.33809625,5.5625 C3.02559625,5.75 2.90059625,6.125 3.08809625,6.4375 L9.02559625,16.75 C9.15059625,16.9375 9.33809625,17.0625 9.58809625,17.0625 C9.71309625,17.0625 9.77559625,17.0625 9.90059625,17 C10.2130962,16.8125 10.2755962,16.4375 10.1505962,16.125 L4.15059625,5.8125 L4.15059625,5.8125 Z M16.3380962,8.125 L13.5255962,3.25 C13.4630962,3.125 13.2755962,3 13.0880962,3 C12.9005962,3 12.7130962,3 12.5880962,3.1875 C11.7755962,3.9375 10.8380962,4 9.90059625,4 L9.21309625,4 C7.96309625,4 6.58809625,4.125 5.52559625,5.6875 L9.02559625,11.6875 C9.15059625,11.625 9.21309625,11.5625 9.27559625,11.4375 C10.0255962,10.125 10.9005962,10.0625 12.0880962,10.0625 L12.7130962,10.0625 C13.8380962,10.0625 15.0880962,10 16.2755962,8.9375 C16.4630962,8.75 16.4630962,8.4375 16.3380962,8.125 L16.3380962,8.125 Z"/>
</svg>

<svg xmlns="http://www.w3.org/2000/svg" viewBox="0 0 20 20">
    <path fill="#000" fill-rule="evenodd" d="M4.15 5.813c-.187-.313-.562-.438-.812-.25-.312.187-.437.562-.25.875L9.026 16.75a.656.656 0 0 0 .562.313c.125 0 .188 0 .313-.063.312-.188.375-.563.25-.875l-6-10.313m12.187 2.313L13.526 3.25a.526.526 0 0 0-.438-.25c-.187 0-.375 0-.5.188-.812.75-1.75.812-2.687.812h-.688c-1.25 0-2.625.125-3.687 1.688l3.5 6a.488.488 0 0 0 .25-.25c.75-1.313 1.625-1.376 2.812-1.376h.625c1.125 0 2.375-.062 3.563-1.124.187-.188.187-.5.062-.813"/>
</svg>
